X: 99
M:2/4
L:1/16
K:D
vDFAd BdAd|efgf edBd|DFAd BdAd|gfed c"4"eAc|
|:(ufg)|afdf c"4"eAc|dcdA BAFA|GBF"4"A EGDF|AgB"4"e dcBA|
afdf c"4"eAc|dfc"4"e DFAD|GBEA gfec|d2d2d2:|


